X:42
T:Hanter Dro III
R:Breton
S:from Anna Pack/Frances Watt
G:don't play
G:A instrument - whistle
P:don't play: 3x
M:6/4
K:D
|: d2fg a2b2 a4 | d'2c'b abaf g2a2 | d2fg a2b2 a4 | d'2c'b abaf a4 :| 
|: a2ba d2e2 fed2 | g2bg fafd e4 | a2ba d2e2 fed2 | e2ed egfe d4 :|

